X:30
T: O'Keeffe's
S: De Danann
Z: B.Black
R: polka
M: 2/4
L: 1/8
K: D
B/c | dB fB | de f>e | dB bB |\
c/B/A/c/ ef/e/ |
dB fB | de f>e | d>e f/e/d | B2 B :|
e | ff/f/ ba | fe f>e | dB bB |\
c/B/A/c/ ef/e/ |
ff/f/ ba | fe f>e | d>e f/e/d | B2 B :|
